public/img/svg/fedEx.svg

<svg width="173" height="53" viewBox="0 0 173 53" fill="none" xmlns="http://www.w3.org/2000/svg">
<g clip-path="url(#clip0_47_897)">
<path d="M128.686 50.6266L143.101 34.6606L128.686 18.6923H143.896L151.036 26.4486L157.911 18.6923H172.59L158.243 34.5946L172.787 50.6266H157.515L150.44 42.8066L143.431 50.6266H128.686Z" fill="#E3E4E6" fill-opacity="0.55"/>
<path d="M128.686 11.5337H112.359V18.6922H128.686V29.4807H112.359V39.3832H128.686V50.6265H100.359V0.321411H128.686V11.5337Z" fill="#E3E4E6" fill-opacity="0.55"/>
<path d="M88.4097 0.321411V20.9087H88.2782C85.6327 17.9114 82.3274 16.8698 78.4922 16.8698C70.6362 16.8698 64.7185 22.134 62.6412 29.094C60.2723 21.425 54.1629 16.726 45.1037 16.726C37.7468 16.726 31.9373 19.9812 28.9055 25.2854V18.6929H13.6986V11.5351H30.2936V0.321411H0.142822V50.6273H13.6986V29.4807H27.21C26.8072 31.0342 26.5922 32.6973 26.5922 34.4523C26.5922 44.946 34.7248 52.3089 45.1037 52.3089C53.8315 52.3089 59.5831 48.27 62.6254 40.9063H51.0087C49.4372 43.1184 48.2452 43.7755 45.1037 43.7755C41.4609 43.7755 38.3202 40.6426 38.3202 36.9288H61.9746C63.0004 45.2638 69.5871 52.4519 78.626 52.4519C82.525 52.4519 86.0949 50.5613 88.2782 47.3692H88.4097V50.6258H100.359V0.321411H88.4097ZM38.6975 29.6311C39.4513 26.4359 41.9652 24.3476 45.1037 24.3476C48.5586 24.3476 50.9448 26.3715 51.5723 29.6311C51.8369 29.6311 38.6975 29.6311 38.6975 29.6311ZM81.158 42.9672C76.7531 42.9672 74.016 38.9216 74.016 34.6975C74.016 30.1822 76.3969 25.8403 81.158 25.8403C86.0949 25.8403 88.0617 30.1822 88.0617 34.6975C88.061 38.9794 85.9769 42.9672 81.158 42.9672Z" fill="#E3E4E6" fill-opacity="0.55"/>
</g>
<defs>
<clipPath id="clip0_47_897">
<rect width="172.857" height="51.8571" fill="white" transform="translate(0.142822 0.321411)"/>
</clipPath>
</defs>
</svg>

<svg width="173" height="53" fill="none" xmlns="http://www.w3.org/2000/svg"><g clip-path="url(#a)" fill="#E3E4E6" fill-opacity=".55"><path d="m128.686 50.627 14.415-15.966-14.415-15.969h15.21l7.14 7.757 6.875-7.757h14.679l-14.347 15.903 14.544 16.032h-15.272l-7.075-7.82-7.009 7.82h-14.745Zm0-39.093h-16.327v7.158h16.327v10.789h-16.327v9.902h16.327v11.243h-28.327V.322h28.327v11.213ZM88.41.321V20.91h-.132c-2.645-2.998-5.95-4.04-9.786-4.04-7.856 0-13.773 5.265-15.85 12.225-2.37-7.669-8.48-12.368-17.538-12.368-7.357 0-13.167 3.255-16.198 8.56v-6.593H13.698v-7.158h16.595V.321H.143v50.306h13.556V29.481H27.21a19.775 19.775 0 0 0-.618 4.971c0 10.494 8.133 17.857 18.512 17.857 8.727 0 14.48-4.039 17.521-11.403H51.01c-1.572 2.212-2.764 2.87-5.905 2.87-3.643 0-6.784-3.133-6.784-6.847h23.655c1.024 8.335 7.611 15.523 16.65 15.523 3.899 0 7.469-1.89 9.652-5.083h.132v3.257h11.949V.32h-11.95Zm-49.712 29.31c.753-3.195 3.267-5.283 6.406-5.283 3.455 0 5.84 2.024 6.468 5.283H38.697Zm42.46 13.336c-4.405 0-7.142-4.045-7.142-8.27 0-4.515 2.38-8.857 7.142-8.857 4.937 0 6.904 4.342 6.904 8.857-.001 4.282-2.085 8.27-6.904 8.27Z"/></g><defs><clipPath id="a"><path fill="#fff" transform="translate(.143 .321)" d="M0 0h172.857v51.857H0z"/></clipPath></defs></svg>
